build/assets/images/proyectos/logos/logo-lagun-aro.svg

<svg width="200" height="200" viewBox="0 0 200 200" fill="none" xmlns="http://www.w3.org/2000/svg">
<rect width="200" height="200" fill="white"/>
<path d="M141.444 111.519V111.632H156.261L156.352 111.564L156.329 111.541L156.261 111.519H141.444V111.519ZM175.98 97.8312L176.138 97.7183H151.789L151.699 97.786L151.721 97.8086L151.789 97.8312H175.98V97.8312Z" fill="black"/>
<path d="M180 78L151.812 97.7182H151.789H141.444V104.969V111.632V121.999L156.261 111.632H180V97.7182H176.16L180 95.0304V78ZM154.116 105.375C154.003 105.962 154.138 107.815 154.838 107.95C155.087 107.995 155.29 107.95 155.493 107.837L156.103 107.498L156.216 109.96H152.309C152.444 108.944 152.512 108.108 152.58 107.363L152.715 105.375C151.925 105.262 151.066 104.969 150.344 104.404C149.711 103.884 149.35 103.252 149.305 102.484C149.214 101.129 150.999 99.4348 153.302 99.4348H153.98C154.229 99.4574 154.477 99.48 154.748 99.5478C154.59 99.8866 154.387 100.293 154.341 100.993C154.093 100.926 153.89 100.88 153.596 100.88C151.925 100.88 151.473 102.01 151.473 102.439C151.473 103.546 152.557 103.93 153.37 103.997C153.958 104.065 154.522 103.93 155.019 103.591C155.38 103.342 155.471 103.252 155.652 102.845C156.081 103.071 157.052 103.139 157.752 102.891C157.594 104.291 155.697 105.33 154.116 105.375Z" fill="black"/>
<path d="M21.669 111.966C20.6086 111.966 20 111.37 20 110.417V97.6982H22.5788V109.839H29.2611V111.966" fill="black"/>
<path d="M37.5497 100.151L35.1089 107.21H39.9088L37.5497 100.151ZM41.4398 111.966L40.4422 109.155H34.5567L33.5591 111.966H30.9678L35.7489 98.7962C36.0187 97.968 36.6085 97.5476 37.6061 97.5476C38.541 97.5476 39.1559 97.9931 39.4257 98.7774L44.0688 111.966H41.4398Z" fill="black"/>
<path d="M45.3173 104.876C45.3173 100.001 48.216 97.623 52.1438 97.623C53.4426 97.623 54.754 97.9054 56.2097 98.3321L57.3202 98.6583L56.9375 100.804L55.7328 100.465C54.4152 100.076 53.2983 99.8316 52.3195 99.8316C49.5776 99.8316 47.8898 101.419 47.8898 104.901C47.8898 108.478 49.6717 110.128 52.4074 110.128C53.3109 110.128 54.1015 110.028 55.0238 109.864V106.639H51.8929V104.738H55.7516C56.7681 104.738 57.4206 105.372 57.4206 106.288V109.532C57.4206 110.73 57.0944 111.257 55.9963 111.565C54.7728 111.891 53.4238 112.104 52.2066 112.104C48.216 112.104 45.3173 109.802 45.3173 104.876Z" fill="black"/>
<path d="M66.1861 112.217C62.4465 112.217 60.4136 110.203 60.4136 106.809V97.6982H62.9861V106.884C62.9861 108.942 64.059 110.065 66.1861 110.065C68.3507 110.065 69.4111 108.942 69.4111 106.884V97.6982H71.9774V106.809C71.9774 110.191 69.9444 112.217 66.1861 112.217Z" fill="black"/>
<path d="M77.4424 111.966H75.1836V99.2105C75.1836 98.1187 75.855 97.5603 76.9655 97.5603C77.8879 97.5603 78.4275 98.0309 78.8102 98.6395L84.6768 108.478V97.6983H86.9544V110.454C86.9544 111.527 86.2705 112.086 85.1599 112.086C84.2564 112.086 83.7168 111.621 83.3529 111.006L77.4424 101.174" fill="black"/>
<path d="M101.449 100.151L99.0015 107.21H103.801L101.449 100.151ZM105.339 111.966L104.341 109.155H98.4556L97.4517 111.966H94.8604L99.6415 98.7962C99.905 97.968 100.501 97.5476 101.505 97.5476C102.44 97.5476 103.055 97.9931 103.318 98.7774L107.968 111.966H105.339Z" fill="black"/>
<path d="M116.306 99.6182H112.736V104.625H116.959L117.611 103.728C118.032 103.17 118.421 102.504 118.421 101.789C118.421 100.503 117.825 99.6182 116.306 99.6182ZM118.854 111.966L116.457 106.526H112.736V111.966H110.189V99.2355C110.189 98.3131 110.803 97.6982 111.82 97.6982H116.632C119.28 97.6982 120.874 99.0974 120.874 101.726C120.874 102.843 120.397 103.797 119.745 104.6L118.772 105.817L121.577 111.966H118.854Z" fill="black"/>
<path d="M130.116 99.5743C127.487 99.5743 125.963 101.475 125.963 104.876C125.963 108.29 127.581 110.191 130.21 110.191C132.833 110.191 134.358 108.302 134.358 104.876C134.358 101.475 132.745 99.5743 130.116 99.5743ZM130.116 112.123C126.076 112.123 123.365 109.494 123.365 104.876C123.365 100.246 126.17 97.5979 130.21 97.5979C134.257 97.5979 136.949 100.227 136.949 104.876C136.949 109.557 134.188 112.123 130.116 112.123Z" fill="black"/>
</svg>

<svg width="200" height="200" fill="none" xmlns="http://www.w3.org/2000/svg"><path fill="#fff" d="M0 0h200v200H0z"/><path d="M141.444 111.519v.113h14.817l.091-.068-.023-.023-.068-.022h-14.817zm34.536-13.688l.158-.113h-24.349l-.09.068.022.023.068.022h24.191z" fill="#000"/><path d="M180 78l-28.188 19.718h-10.368V122l14.817-10.367H180V97.718h-3.84L180 95.03V78zm-25.884 27.375c-.113.587.022 2.44.722 2.575a.93.93 0 00.655-.113l.61-.339.113 2.462h-3.907c.135-1.016.203-1.852.271-2.597l.135-1.988c-.79-.113-1.649-.406-2.371-.971-.633-.52-.994-1.152-1.039-1.92-.091-1.355 1.694-3.05 3.997-3.05h.678c.249.023.497.046.768.114-.158.339-.361.745-.407 1.445a2.598 2.598 0 00-.745-.113c-1.671 0-2.123 1.13-2.123 1.559 0 1.107 1.084 1.491 1.897 1.558a2.384 2.384 0 001.649-.406c.361-.249.452-.339.633-.746.429.226 1.4.294 2.1.046-.158 1.4-2.055 2.439-3.636 2.484zm-132.447 6.591c-1.06 0-1.669-.596-1.669-1.549V97.698h2.579v12.141h6.682v2.127m8.289-11.815l-2.441 7.059h4.8l-2.36-7.059zm3.89 11.815l-.998-2.811h-5.885l-.998 2.811h-2.591l4.78-13.17c.27-.828.86-1.248 1.858-1.248.935 0 1.55.445 1.82 1.23l4.643 13.188h-2.63zm3.877-7.09c0-4.875 2.899-7.253 6.827-7.253 1.299 0 2.61.282 4.066.71l1.11.325-.383 2.146-1.204-.339c-1.318-.389-2.435-.633-3.413-.633-2.742 0-4.43 1.587-4.43 5.069 0 3.577 1.782 5.227 4.517 5.227.904 0 1.695-.1 2.617-.264v-3.225h-3.131v-1.901h3.859c1.016 0 1.669.634 1.669 1.55v3.244c0 1.198-.327 1.725-1.425 2.033-1.223.326-2.572.539-3.79.539-3.99 0-6.889-2.302-6.889-7.228zm20.869 7.341c-3.74 0-5.772-2.014-5.772-5.408v-9.11h2.572v9.185c0 2.058 1.073 3.181 3.2 3.181 2.165 0 3.225-1.123 3.225-3.181v-9.186h2.566v9.111c0 3.382-2.033 5.408-5.79 5.408zm11.256-.251h-2.258V99.211c0-1.092.671-1.65 1.782-1.65.922 0 1.462.47 1.844 1.078l5.867 9.839v-10.78h2.277v12.756c0 1.073-.683 1.632-1.794 1.632-.904 0-1.443-.465-1.807-1.08l-5.91-9.832m24.006-1.023l-2.448 7.059h4.8l-2.352-7.059zm3.89 11.815l-.998-2.811h-5.885l-1.004 2.811H94.86l4.781-13.17c.264-.828.86-1.248 1.864-1.248.935 0 1.55.445 1.813 1.23l4.65 13.188h-2.629zm10.967-12.348h-3.57v5.007h4.223l.652-.897c.421-.558.81-1.224.81-1.939 0-1.286-.596-2.17-2.115-2.17zm2.548 12.348l-2.397-5.44h-3.721v5.44h-2.547v-12.73c0-.923.614-1.538 1.631-1.538h4.812c2.648 0 4.242 1.4 4.242 4.028 0 1.117-.477 2.071-1.129 2.874l-.973 1.217 2.805 6.149h-2.723zm11.262-12.392c-2.629 0-4.153 1.901-4.153 5.302 0 3.414 1.618 5.315 4.247 5.315 2.623 0 4.148-1.889 4.148-5.315 0-3.401-1.613-5.302-4.242-5.302zm0 12.549c-4.04 0-6.751-2.629-6.751-7.247 0-4.63 2.805-7.278 6.845-7.278 4.047 0 6.739 2.629 6.739 7.278 0 4.681-2.761 7.247-6.833 7.247z" fill="#000"/></svg>
